src/images/phone2.svg

<svg width="176" height="139" viewBox="0 0 176 139" fill="none" xmlns="http://www.w3.org/2000/svg">
<circle cx="87" cy="71" r="68" fill="#4F57AA"/>
<path d="M132.16 101H41.8402C40.2781 101 39 99.637 39 97.9712V41.0288C39 39.363 40.2781 38 41.8402 38H132.16C133.722 38 135 39.363 135 41.0288V97.9712C135 99.637 133.722 101 132.16 101Z" fill="white"/>
<rect x="48" y="57" width="78" height="3" fill="#D4DDED"/>
<rect x="48" y="66" width="22" height="3" fill="#D4DDED"/>
<rect x="76" y="66" width="22" height="3" fill="#D4DDED"/>
<rect x="104" y="66" width="22" height="3" fill="#D4DDED"/>
<path d="M39 49.2043V40.8365C39 39.2764 40.2781 38 41.8402 38H132.16C133.722 38 135 39.2764 135 40.8365V49.2043H39Z" fill="#445156"/>
<path d="M46.2852 45.7295C47.4617 45.7295 48.4154 44.7771 48.4154 43.6021C48.4154 42.4272 47.4617 41.4747 46.2852 41.4747C45.1087 41.4747 44.155 42.4272 44.155 43.6021C44.155 44.7771 45.1087 45.7295 46.2852 45.7295Z" fill="#E56963"/>
<path d="M52.8178 45.7295C53.9943 45.7295 54.948 44.7771 54.948 43.6021C54.948 42.4272 53.9943 41.4747 52.8178 41.4747C51.6413 41.4747 50.6876 42.4272 50.6876 43.6021C50.6876 44.7771 51.6413 45.7295 52.8178 45.7295Z" fill="#FFC300"/>
<path d="M59.3503 45.7295C60.5267 45.7295 61.4804 44.7771 61.4804 43.6021C61.4804 42.4272 60.5267 41.4747 59.3503 41.4747C58.1738 41.4747 57.2201 42.4272 57.2201 43.6021C57.2201 44.7771 58.1738 45.7295 59.3503 45.7295Z" fill="#37BAA8"/>
<path d="M122.262 43.6021C122.262 44.7793 121.267 45.7295 120.046 45.7295H66.2663C65.045 45.7295 64.0509 44.7793 64.0509 43.6021C64.0509 42.425 65.045 41.4747 66.2663 41.4747H120.046C121.267 41.4747 122.262 42.425 122.262 43.6021Z" fill="white"/>
<path d="M169.534 89C166.46 89 164 86.5404 164 83.5342C164 80.4596 166.46 78 169.534 78C172.609 78 175.068 80.4596 175.068 83.5342C175 86.5404 172.54 89 169.534 89ZM169.534 79.3665C167.211 79.3665 165.366 81.2112 165.366 83.5342C165.366 85.8571 167.211 87.7019 169.534 87.7019C171.857 87.7019 173.702 85.8571 173.702 83.5342C173.634 81.2112 171.789 79.3665 169.534 79.3665Z" fill="#FB9F88"/>
<path d="M14.4 45.4C14.1 45.4 13.9 45.3 13.7 45.1L8.3 39.7C7.9 39.3 7.9 38.7 8.3 38.3C8.7 37.9 9.3 37.9 9.7 38.3L15.1 43.7C15.5 44.1 15.5 44.7 15.1 45.1C14.9 45.3 14.7 45.4 14.4 45.4Z" fill="#4F57AA"/>
<path d="M9 45.4C8.7 45.4 8.5 45.3 8.3 45.1C7.9 44.7 7.9 44.1 8.3 43.7L13.7 38.3C14.1 37.9 14.7 37.9 15.1 38.3C15.5 38.7 15.5 39.3 15.1 39.7L9.7 45.1C9.5 45.3 9.2 45.4 9 45.4Z" fill="#4F57AA"/>
<path d="M134.4 137.4C134.1 137.4 133.9 137.3 133.7 137.1L128.3 131.7C127.9 131.3 127.9 130.7 128.3 130.3C128.7 129.9 129.3 129.9 129.7 130.3L135.1 135.7C135.5 136.1 135.5 136.7 135.1 137.1C134.9 137.3 134.7 137.4 134.4 137.4Z" fill="#FB9F88"/>
<path d="M129 137.4C128.7 137.4 128.5 137.3 128.3 137.1C127.9 136.7 127.9 136.1 128.3 135.7L133.7 130.3C134.1 129.9 134.7 129.9 135.1 130.3C135.5 130.7 135.5 131.3 135.1 131.7L129.7 137.1C129.5 137.3 129.2 137.4 129 137.4Z" fill="#FB9F88"/>
<path d="M98.1506 31.3011C104.309 31.3011 109.301 26.3089 109.301 20.1506C109.301 13.9923 104.309 9 98.1506 9C91.9923 9 87 13.9923 87 20.1506C87 26.3089 91.9923 31.3011 98.1506 31.3011Z" fill="#FB9F88"/>
<path d="M102.902 25.9283H93.3988C92.9128 25.9283 92.5348 25.5503 92.5348 25.0644V18.0446C92.5348 17.5586 92.9128 17.1807 93.3988 17.1807H102.902C103.388 17.1807 103.766 17.5586 103.766 18.0446V25.0914C103.739 25.5503 103.361 25.9283 102.902 25.9283ZM94.2627 24.2274H102.038V18.8816H94.2627V24.2274Z" fill="white"/>
<path d="M101.903 18.8815C101.417 18.8815 101.039 18.5036 101.039 18.0176V15.4257C101.039 14.9937 100.688 14.6697 100.283 14.6697H95.9906C95.5586 14.6697 95.2346 15.0207 95.2346 15.4257V18.0176C95.2346 18.5036 94.8567 18.8815 94.3707 18.8815C93.8847 18.8815 93.5067 18.5036 93.5067 18.0176V15.4257C93.5067 14.0487 94.6137 12.9418 95.9906 12.9418H100.283C101.66 12.9418 102.767 14.0487 102.767 15.4257V18.0176C102.767 18.5036 102.389 18.8815 101.903 18.8815Z" fill="white"/>
<path d="M99.0146 20.8255C99.0146 20.3395 98.6366 19.9615 98.1506 19.9615C97.6646 19.9615 97.2866 20.3395 97.2866 20.8255C97.2866 21.2035 97.5026 21.5005 97.8266 21.6355L97.2866 22.9854H98.1506H99.0146L98.4746 21.6355C98.7716 21.5005 99.0146 21.2035 99.0146 20.8255Z" fill="white"/>
<path d="M74.4848 77.52C74.1947 76.4264 73.0564 75.7791 71.9628 76.0693L36.52 85.6665C35.4264 85.9567 34.7791 87.0949 35.0693 88.1886L35.3818 89.3715L74.7973 78.703L74.4848 77.52Z" fill="#FDCD5C"/>
<path d="M74.8058 78.716L35.4006 89.3827L36.602 93.8209L76.0072 83.1542L74.8058 78.716Z" fill="#1A2943"/>
<path d="M36.6094 93.8353L40.5152 108.231C40.8054 109.325 41.9436 109.972 43.0373 109.682L78.48 100.085C79.5737 99.7945 80.2209 98.6562 79.9308 97.5626L76.0249 83.1667L36.6094 93.8353Z" fill="#FDCD5C"/>
<path d="M50.2237 102.406L44.1531 104.057C43.4166 104.258 42.6577 103.812 42.4569 103.075C42.256 102.339 42.7024 101.58 43.4389 101.379L49.5095 99.7276C50.246 99.5268 51.0048 99.9731 51.2057 100.71C51.3842 101.446 50.9602 102.227 50.2237 102.406Z" fill="#E6EFFF"/>
<path d="M69.6806 98.6009C71.1679 98.1983 72.0472 96.6662 71.6446 95.1789C71.242 93.6916 69.7099 92.8123 68.2227 93.2149C66.7354 93.6175 65.856 95.1495 66.2586 96.6368C66.6613 98.1241 68.1933 99.0034 69.6806 98.6009Z" fill="#FF6B6B"/>
<path d="M73.7219 97.5108C75.2092 97.1082 76.0885 95.5761 75.6859 94.0888C75.2833 92.6015 73.7512 91.7222 72.2639 92.1248C70.7766 92.5274 69.8973 94.0594 70.2999 95.5467C70.7025 97.034 72.2346 97.9134 73.7219 97.5108Z" fill="#E6EFFF"/>
<path d="M128.396 81.8158L104.678 75.3574C103.959 75.1617 103.204 75.5937 103.008 76.3125L102.787 77.125L101.978 80.0937L99.3574 89.7186C99.1617 90.4373 99.5938 91.1927 100.313 91.3884L124.031 97.8469C124.75 98.0426 125.505 97.6105 125.701 96.8918L128.322 87.2669L129.13 84.2982L129.351 83.4857C129.578 82.7755 129.146 82.02 128.396 81.8158Z" fill="#008AA9"/>
<path d="M119.027 92.9261C121.788 93.6781 124.636 92.0491 125.388 89.2877C126.14 86.5263 124.511 83.6782 121.75 82.9263C118.988 82.1744 116.14 83.8034 115.388 86.5648C114.636 89.3261 116.265 92.1742 119.027 92.9261Z" fill="white"/>
<path d="M120.999 88.3946C121.63 88.2978 122.198 87.8147 122.376 87.1584C122.623 86.2522 122.077 85.298 121.171 85.0512C120.265 84.8044 119.311 85.3502 119.064 86.2565C118.885 86.9127 119.13 87.6171 119.624 88.0202C118.383 88.0179 117.219 88.8421 116.878 90.0921L122.316 91.5727C122.665 90.2914 122.079 88.9907 120.999 88.3946Z" fill="#008AA9"/>
<path d="M109.404 81.1758L105.498 80.1122C105.216 80.0356 105.057 79.7573 105.134 79.4761C105.21 79.1948 105.489 79.0356 105.77 79.1122L109.676 80.1759C109.957 80.2524 110.117 80.5308 110.04 80.812C109.963 81.0932 109.685 81.2524 109.404 81.1758Z" fill="white"/>
<path d="M113.498 82.2905L111.966 81.8736C111.685 81.797 111.526 81.5187 111.603 81.2374C111.679 80.9562 111.957 80.797 112.239 80.8736L113.77 81.2905C114.051 81.3671 114.21 81.6454 114.134 81.9267C114.057 82.2079 113.779 82.3671 113.498 82.2905Z" fill="white"/>
<path d="M109.353 82.1018L113.259 83.1655C113.541 83.2421 113.7 83.5204 113.623 83.8016C113.547 84.0829 113.268 84.2421 112.987 84.1655L109.081 83.1018C108.8 83.0252 108.64 82.7469 108.717 82.4657C108.825 82.193 109.103 82.0338 109.353 82.1018Z" fill="white"/>
<path d="M105.259 80.9872L106.791 81.4042C107.072 81.4808 107.231 81.7591 107.154 82.0403C107.078 82.3216 106.8 82.4807 106.518 82.4042L104.987 81.9872C104.706 81.9106 104.547 81.6323 104.623 81.3511C104.7 81.0698 105.009 80.9191 105.259 80.9872Z" fill="white"/>
<path d="M107.728 88.0705L111.634 89.1341C111.915 89.2107 112.075 89.489 111.998 89.7703C111.921 90.0515 111.643 90.2107 111.362 90.1341L107.456 89.0705C107.174 88.9939 107.015 88.7156 107.092 88.4343C107.2 88.1616 107.478 88.0024 107.728 88.0705Z" fill="white"/>
<path d="M103.634 86.9557L105.166 87.3727C105.447 87.4493 105.606 87.7276 105.529 88.0088C105.453 88.2901 105.174 88.4492 104.893 88.3727L103.362 87.9557C103.081 87.8791 102.922 87.6008 102.998 87.3196C103.075 87.0383 103.384 86.8877 103.634 86.9557Z" fill="white"/>
<path d="M42.5903 28.9097C48.8917 25.5462 51.2733 17.7111 47.9097 11.4097C44.5462 5.1083 36.7111 2.7267 30.4097 6.09027C24.1083 9.45383 21.7267 17.2889 25.0903 23.5903C28.4538 29.8917 36.2889 32.2733 42.5903 28.9097Z" fill="#FBA927"/>
<path d="M41.0867 26.0928C45.8324 23.5596 47.626 17.659 45.0928 12.9132C42.5597 8.16754 36.659 6.37391 31.9133 8.90708C27.1676 11.4402 25.374 17.3409 27.9071 22.0866C30.4403 26.8323 36.341 28.626 41.0867 26.0928Z" fill="#FDCD5C"/>
<path d="M36.4946 29.1842C32.3018 29.1842 28.2702 26.9265 26.1738 22.9917C23.1421 17.3152 25.303 10.2197 30.9794 7.18794C33.7209 5.70432 36.8817 5.41405 39.8811 6.31712C42.8806 7.22019 45.3318 9.2521 46.7832 11.9936C48.2668 14.735 48.5571 17.8958 47.654 20.8953C46.7509 23.8947 44.7513 26.3459 41.9776 27.7973C40.2359 28.7326 38.3653 29.1842 36.4946 29.1842ZM26.7221 22.7014C29.5926 28.0876 36.3011 30.1195 41.6873 27.249C44.2997 25.8622 46.2026 23.54 47.0735 20.7017C47.9443 17.8635 47.654 14.8963 46.2349 12.2838C44.848 9.67138 42.5259 7.76848 39.6876 6.89766C36.8494 6.02685 33.8822 6.31712 31.2697 7.73623C25.8835 10.6067 23.8516 17.3152 26.7221 22.7014Z" fill="#FDCD5C"/>
<path d="M32.8824 12.4451L32.4309 11.6388L33.85 10.8647L34.3015 11.7033C35.6884 11.284 36.8172 11.8968 37.6235 13.4127L37.817 13.7675L36.1722 14.6383L35.9141 14.1868C35.4949 13.3804 35.0111 13.2514 34.4628 13.574C33.9145 13.8642 33.7532 14.348 34.1725 15.1221C35.3981 17.412 38.8491 15.7026 40.5585 18.8634C41.3648 20.3792 41.2358 21.6693 40.1392 22.6047L40.5585 23.411L39.1394 24.185L38.6879 23.3465C37.301 23.7658 36.1399 23.1207 35.3336 21.6371L34.9143 20.863L36.5592 19.9922L37.0107 20.863C37.43 21.6693 37.9461 21.7661 38.4943 21.4436C39.0426 21.1533 39.2362 20.6695 38.8169 19.8955C37.6558 17.6055 34.1725 19.3149 32.4954 16.1542C31.6891 14.6705 31.7858 13.3804 32.8824 12.4451Z" fill="#FBA927"/>
<path d="M90.2606 127.597C93.314 130.189 97.8016 129.904 100.284 126.96C102.766 124.016 102.303 119.528 99.2499 116.937C96.1966 114.345 91.709 114.63 89.2267 117.574C86.7444 120.518 87.2073 125.006 90.2606 127.597Z" fill="#FBA927"/>
<path d="M91.3701 126.281C93.6697 128.233 97.0494 128.018 98.9188 125.801C100.788 123.584 100.44 120.205 98.1401 118.253C95.8406 116.301 92.4609 116.516 90.5914 118.733C88.722 120.95 89.0706 124.329 91.3701 126.281Z" fill="#FDCD5C"/>
<path d="M88.8484 124.525C87.9646 122.333 88.256 119.789 89.8029 117.932C92.033 115.249 96.0748 115.006 98.8036 117.386C100.131 118.533 100.944 120.129 101.12 121.871C101.296 123.614 100.785 125.289 99.7057 126.578C98.6327 127.884 97.0964 128.647 95.39 128.755C93.6836 128.863 92.0232 128.292 90.705 127.123C89.8652 126.393 89.2427 125.503 88.8484 124.525ZM90.0652 118.162C87.9479 120.705 88.3349 124.605 90.921 126.865C92.1726 127.962 93.7474 128.508 95.3654 128.414C96.9835 128.32 98.4221 127.594 99.4434 126.347C100.471 125.117 100.944 123.535 100.786 121.883C100.628 120.23 99.8555 118.735 98.5876 117.644C96.0015 115.384 92.1825 115.62 90.0652 118.162Z" fill="#FDCD5C"/>
<path d="M96.5368 119.376L96.8479 118.982L97.5416 119.589L97.2143 119.989C97.7219 120.646 97.653 121.364 97.0592 122.083L96.9213 122.253L96.1305 121.545L96.3036 121.322C96.6215 120.945 96.5835 120.663 96.3036 120.433C96.04 120.197 95.7612 120.204 95.4596 120.575C94.5641 121.664 96.1637 123.172 94.9315 124.686C94.3377 125.405 93.6584 125.583 92.952 125.179L92.6341 125.556L91.9404 124.949L92.2677 124.549C91.7601 123.892 91.8383 123.151 92.4159 122.438L92.7175 122.067L93.5083 122.775L93.1646 123.182C92.8467 123.559 92.9079 123.852 93.1878 124.082C93.4514 124.318 93.737 124.328 94.0387 123.957C94.9479 122.902 93.3414 121.377 94.5805 119.88C95.158 119.168 95.8304 118.972 96.5368 119.376Z" fill="#FBA927"/>
<path d="M7.5 110C3.33333 110 0 106.646 0 102.547C0 98.354 3.33333 95 7.5 95C11.6667 95 15 98.354 15 102.547C14.9074 106.646 11.5741 110 7.5 110ZM7.5 96.8634C4.35185 96.8634 1.85185 99.3789 1.85185 102.547C1.85185 105.714 4.35185 108.23 7.5 108.23C10.6481 108.23 13.1481 105.714 13.1481 102.547C13.0556 99.3789 10.5556 96.8634 7.5 96.8634Z" fill="#FB9F88"/>
<path d="M149 22C146.778 22 145 20.2112 145 18.0248C145 15.7888 146.778 14 149 14C151.222 14 153 15.7888 153 18.0248C152.951 20.2112 151.173 22 149 22ZM149 14.9938C147.321 14.9938 145.988 16.3354 145.988 18.0248C145.988 19.7143 147.321 21.0559 149 21.0559C150.679 21.0559 152.012 19.7143 152.012 18.0248C151.963 16.3354 150.63 14.9938 149 14.9938Z" fill="#4F57AA"/>
</svg>

<svg width="176" height="139" fill="none" xmlns="http://www.w3.org/2000/svg"><circle cx="87" cy="71" r="68" fill="#4F57AA"/><path d="M132.16 101H41.84c-1.562 0-2.84-1.363-2.84-3.029V41.03c0-1.667 1.278-3.03 2.84-3.03h90.32c1.562 0 2.84 1.363 2.84 3.029V97.97c0 1.666-1.278 3.029-2.84 3.029z" fill="#fff"/><path fill="#D4DDED" d="M48 57h78v3H48zm0 9h22v3H48zm28 0h22v3H76zm28 0h22v3h-22z"/><path d="M39 49.204v-8.367A2.847 2.847 0 0141.84 38h90.32a2.847 2.847 0 012.84 2.837v8.367H39z" fill="#445156"/><path d="M46.285 45.73a2.129 2.129 0 100-4.255 2.129 2.129 0 100 4.255z" fill="#E56963"/><path d="M52.818 45.73a2.129 2.129 0 100-4.255 2.128 2.128 0 100 4.255z" fill="#FFC300"/><path d="M59.35 45.73a2.129 2.129 0 100-4.255 2.129 2.129 0 100 4.255z" fill="#37BAA8"/><path d="M122.262 43.602c0 1.177-.995 2.128-2.216 2.128h-53.78c-1.221 0-2.215-.95-2.215-2.128 0-1.177.994-2.127 2.215-2.127h53.78c1.221 0 2.216.95 2.216 2.127z" fill="#fff"/><path d="M169.534 89C166.46 89 164 86.54 164 83.534A5.511 5.511 0 01169.534 78a5.51 5.51 0 015.534 5.534C175 86.54 172.54 89 169.534 89zm0-9.633a4.141 4.141 0 00-4.168 4.167 4.141 4.141 0 004.168 4.168 4.141 4.141 0 004.168-4.168c-.068-2.323-1.913-4.168-4.168-4.168z" fill="#FB9F88"/><path d="M14.4 45.4c-.3 0-.5-.1-.7-.3l-5.4-5.4c-.4-.4-.4-1 0-1.4.4-.4 1-.4 1.4 0l5.4 5.4c.4.4.4 1 0 1.4-.2.2-.4.3-.7.3z" fill="#4F57AA"/><path d="M9 45.4c-.3 0-.5-.1-.7-.3-.4-.4-.4-1 0-1.4l5.4-5.4c.4-.4 1-.4 1.4 0 .4.4.4 1 0 1.4l-5.4 5.4c-.2.2-.5.3-.7.3z" fill="#4F57AA"/><path d="M134.4 137.4c-.3 0-.5-.1-.7-.3l-5.4-5.4c-.4-.4-.4-1 0-1.4.4-.4 1-.4 1.4 0l5.4 5.4c.4.4.4 1 0 1.4-.2.2-.4.3-.7.3z" fill="#FB9F88"/><path d="M129 137.4c-.3 0-.5-.1-.7-.3-.4-.4-.4-1 0-1.4l5.4-5.4c.4-.4 1-.4 1.4 0 .4.4.4 1 0 1.4l-5.4 5.4c-.2.2-.5.3-.7.3zM98.15 31.301c6.159 0 11.151-4.992 11.151-11.15 0-6.159-4.992-11.151-11.15-11.151C91.992 9 87 13.992 87 20.15c0 6.159 4.992 11.151 11.15 11.151z" fill="#FB9F88"/><path d="M102.902 25.928h-9.503a.853.853 0 01-.864-.864v-7.02c0-.485.378-.863.864-.863h9.503c.486 0 .864.378.864.864v7.046c-.027.46-.405.837-.864.837zm-8.64-1.7h7.776v-5.346h-7.775v5.345z" fill="#fff"/><path d="M101.903 18.881a.853.853 0 01-.864-.863v-2.592a.755.755 0 00-.756-.756h-4.292a.755.755 0 00-.756.756v2.592a.853.853 0 01-.864.863.853.853 0 01-.864-.863v-2.592a2.477 2.477 0 012.484-2.484h4.292a2.477 2.477 0 012.484 2.484v2.592a.853.853 0 01-.864.863zm-2.888 1.945a.853.853 0 00-.864-.864.853.853 0 00-.864.864c0 .377.216.674.54.81l-.54 1.35h1.728l-.54-1.35a.898.898 0 00.54-.81z" fill="#fff"/><path d="M74.485 77.52c-.29-1.094-1.429-1.74-2.522-1.45L36.52 85.666c-1.094.29-1.74 1.428-1.45 2.522l.312 1.183 39.415-10.669-.312-1.183z" fill="#FDCD5C"/><path d="M74.806 78.716L35.4 89.383l1.201 4.438 39.405-10.667-1.201-4.438z" fill="#1A2943"/><path d="M36.61 93.835l3.905 14.396c.29 1.094 1.429 1.741 2.522 1.451l35.443-9.597c1.094-.29 1.74-1.429 1.45-2.522l-3.905-14.396-39.416 10.668z" fill="#FDCD5C"/><path d="M50.224 102.406l-6.07 1.651a1.388 1.388 0 01-1.697-.982 1.388 1.388 0 01.982-1.696l6.07-1.651a1.389 1.389 0 011.697.982c.178.736-.246 1.517-.982 1.696z" fill="#E6EFFF"/><path d="M69.68 98.6a2.79 2.79 0 10-1.457-5.385A2.79 2.79 0 0069.68 98.6z" fill="#FF6B6B"/><path d="M73.722 97.51a2.79 2.79 0 10-1.458-5.385 2.79 2.79 0 001.458 5.386z" fill="#E6EFFF"/><path d="M128.396 81.816l-23.718-6.459a1.369 1.369 0 00-1.67.956l-.221.812-.809 2.969-2.62 9.625a1.368 1.368 0 00.955 1.67l23.718 6.458a1.369 1.369 0 001.67-.955l2.621-9.625.808-2.969.221-.812c.227-.71-.205-1.466-.955-1.67z" fill="#008AA9"/><path d="M119.027 92.926a5.182 5.182 0 102.723-10 5.182 5.182 0 00-2.723 10z" fill="#fff"/><path d="M120.999 88.395a1.722 1.722 0 001.377-1.237 1.728 1.728 0 00-1.205-2.107 1.728 1.728 0 00-2.107 1.206c-.179.656.066 1.36.56 1.763-1.241-.002-2.405.822-2.746 2.072l5.438 1.48a2.788 2.788 0 00-1.317-3.177z" fill="#008AA9"/><path d="M109.404 81.176l-3.906-1.064a.51.51 0 01-.364-.636.511.511 0 01.636-.364l3.906 1.064a.511.511 0 01.364.636.512.512 0 01-.636.364zm4.094 1.114l-1.532-.416a.511.511 0 01-.363-.637.51.51 0 01.636-.363l1.531.416c.281.077.44.355.364.637a.512.512 0 01-.636.363zm-4.145-.188l3.906 1.063a.51.51 0 01.364.637.511.511 0 01-.636.363l-3.906-1.063a.512.512 0 01-.364-.636c.108-.273.386-.432.636-.364zm-4.094-1.115l1.532.417a.51.51 0 01.363.636.51.51 0 01-.636.364l-1.531-.417a.512.512 0 01-.364-.636.533.533 0 01.636-.364zm2.469 7.083l3.906 1.064a.512.512 0 01.364.636.512.512 0 01-.636.364l-3.906-1.064a.51.51 0 01-.364-.636c.108-.272.386-.432.636-.364zm-4.094-1.114l1.532.417a.51.51 0 01.363.636.511.511 0 01-.636.364l-1.531-.417a.512.512 0 01-.364-.636.533.533 0 01.636-.364z" fill="#fff"/><path d="M42.59 28.91c6.302-3.364 8.683-11.199 5.32-17.5-3.364-6.302-11.199-8.683-17.5-5.32-6.302 3.364-8.683 11.199-5.32 17.5 3.364 6.302 11.199 8.683 17.5 5.32z" fill="#FBA927"/><path d="M41.087 26.093c4.745-2.533 6.539-8.434 4.006-13.18-2.533-4.745-8.434-6.54-13.18-4.006-4.745 2.533-6.539 8.434-4.006 13.18 2.533 4.745 8.434 6.539 13.18 4.006z" fill="#FDCD5C"/><path d="M36.495 29.184a11.678 11.678 0 01-10.321-6.192c-3.032-5.677-.871-12.772 4.805-15.804 2.742-1.484 5.903-1.774 8.902-.87 3 .902 5.45 2.934 6.902 5.676 1.484 2.741 1.774 5.902.871 8.901-.903 3-2.903 5.45-5.676 6.902a11.536 11.536 0 01-5.483 1.387zm-9.773-6.483c2.87 5.387 9.58 7.418 14.965 4.548 2.613-1.387 4.516-3.709 5.387-6.547.87-2.839.58-5.806-.84-8.418-1.386-2.613-3.708-4.516-6.546-5.386-2.839-.871-5.806-.58-8.418.838-5.386 2.87-7.418 9.58-4.548 14.965z" fill="#FDCD5C"/><path d="M32.882 12.445l-.451-.806 1.419-.774.451.838c1.387-.419 2.516.194 3.322 1.71l.194.354-1.645.871-.258-.451c-.42-.807-.903-.936-1.451-.613-.549.29-.71.774-.29 1.548 1.225 2.29 4.676.58 6.386 3.741.806 1.516.677 2.806-.42 3.742l.42.806-1.42.774-.451-.838c-1.387.419-2.548-.226-3.354-1.71l-.42-.774 1.645-.87.452.87c.419.806.935.903 1.483.58.549-.29.742-.774.323-1.548-1.161-2.29-4.645-.58-6.322-3.74-.806-1.485-.71-2.775.387-3.71zM90.26 127.597c3.054 2.592 7.542 2.307 10.024-.637 2.482-2.944 2.019-7.432-1.034-10.023-3.053-2.592-7.541-2.307-10.023.637-2.483 2.944-2.02 7.432 1.034 10.023z" fill="#FBA927"/><path d="M91.37 126.281c2.3 1.952 5.68 1.737 7.549-.48 1.869-2.217 1.521-5.596-.779-7.548s-5.68-1.737-7.549.48c-1.869 2.217-1.52 5.596.78 7.548z" fill="#FDCD5C"/><path d="M88.848 124.525c-.883-2.192-.592-4.736.955-6.593 2.23-2.683 6.272-2.926 9-.546a6.796 6.796 0 012.317 4.485c.176 1.743-.335 3.418-1.414 4.707-1.073 1.306-2.61 2.069-4.316 2.177-1.706.108-3.367-.463-4.685-1.632a6.802 6.802 0 01-1.857-2.598zm1.217-6.363c-2.117 2.543-1.73 6.443.856 8.703 1.252 1.097 2.826 1.643 4.444 1.549a5.61 5.61 0 004.078-2.067c1.028-1.23 1.501-2.812 1.343-4.464a6.343 6.343 0 00-2.198-4.239c-2.587-2.26-6.405-2.024-8.523.518z" fill="#FDCD5C"/><path d="M96.537 119.376l.31-.394.695.607-.328.4c.508.657.439 1.375-.155 2.094l-.138.17-.79-.708.173-.223c.317-.377.28-.659 0-.889-.264-.236-.543-.229-.844.142-.896 1.089.704 2.597-.528 4.111-.594.719-1.274.897-1.98.493l-.318.377-.694-.607.328-.4c-.508-.657-.43-1.398.148-2.111l.302-.371.79.708-.343.407c-.318.377-.257.67.023.9.263.236.549.246.85-.125.91-1.055-.697-2.58.543-4.077.577-.712 1.25-.908 1.956-.504z" fill="#FBA927"/><path d="M7.5 110c-4.167 0-7.5-3.354-7.5-7.453C0 98.354 3.333 95 7.5 95s7.5 3.354 7.5 7.547c-.093 4.099-3.426 7.453-7.5 7.453zm0-13.137c-3.148 0-5.648 2.516-5.648 5.684 0 3.167 2.5 5.683 5.648 5.683 3.148 0 5.648-2.516 5.648-5.683-.092-3.168-2.592-5.684-5.648-5.684z" fill="#FB9F88"/><path d="M149 22c-2.222 0-4-1.789-4-3.975A3.996 3.996 0 01149 14c2.222 0 4 1.789 4 4.025-.049 2.186-1.827 3.975-4 3.975zm0-7.006a3.002 3.002 0 00-3.012 3.03A3.002 3.002 0 00149 21.057a3.002 3.002 0 003.012-3.031c-.049-1.69-1.382-3.031-3.012-3.031z" fill="#4F57AA"/></svg>
